svg/fluentui-system-icons/ic_fluent_games_32_filled.svg

<svg width="32" height="32" viewBox="0 0 32 32" fill="none" xmlns="http://www.w3.org/2000/svg">
<path d="M12 6C6.47715 6 2 10.4772 2 16C2 21.5228 6.47715 26 12 26H20C25.5228 26 30 21.5228 30 16C30 10.4772 25.5228 6 20 6H12ZM22 19C22 20.1046 21.1046 21 20 21C18.8954 21 18 20.1046 18 19C18 17.8954 18.8954 17 20 17C21.1046 17 22 17.8954 22 19ZM22 15C20.8954 15 20 14.1046 20 13C20 11.8954 20.8954 11 22 11C23.1046 11 24 11.8954 24 13C24 14.1046 23.1046 15 22 15ZM10 12C10.5523 12 11 12.4477 11 13V15H13C13.5523 15 14 15.4477 14 16C14 16.5523 13.5523 17 13 17H11V19C11 19.5523 10.5523 20 10 20C9.44771 20 9 19.5523 9 19V17H7C6.44772 17 6 16.5523 6 16C6 15.4477 6.44772 15 7 15H9V13C9 12.4477 9.44772 12 10 12Z" fill="#212121"/>
</svg>

<svg xmlns="http://www.w3.org/2000/svg" width="32" height="32"><path d="M12 6C6.477 6 2 10.477 2 16s4.477 10 10 10h8c5.523 0 10-4.477 10-10S25.523 6 20 6h-8Zm10 13a2 2 0 1 1-4 0 2 2 0 0 1 4 0Zm0-4a2 2 0 1 1 0-4 2 2 0 0 1 0 4Zm-12-3a1 1 0 0 1 1 1v2h2a1 1 0 1 1 0 2h-2v2a1 1 0 1 1-2 0v-2H7a1 1 0 1 1 0-2h2v-2a1 1 0 0 1 1-1Z"/></svg>
